@themes/theme-zeno/src/img/aws.svg

<svg width="67" height="40" viewBox="0 0 67 40" fill="none" xmlns="http://www.w3.org/2000/svg">
<path d="M59.1907 30.0541C51.2452 33.3992 42.7219 35.1573 34.1012 35.2294C22.5057 35.2156 11.1135 32.1827 1.04611 26.429C0.235232 25.9521 -0.38485 26.7868 0.28293 27.4069C9.35811 35.5899 21.1663 40.0818 33.3858 39.9993C43.0259 40.0335 52.4519 37.1575 60.4309 31.7474C61.5756 30.8412 60.5263 29.5056 59.31 30.0541H59.1907ZM66.3455 25.8805C65.5585 24.9027 58.6899 24.0441 54.4209 26.9776C53.7769 27.4546 53.8962 28.0746 54.5878 27.9792C56.9727 27.6931 62.2196 27.073 63.1497 28.2654C64.0798 29.4579 62.1003 34.3947 61.2179 36.6127C60.9556 37.2566 61.5279 37.5428 62.1242 37.0181C66.2978 33.7269 67.3233 26.8822 66.5125 25.8805H66.3455Z" fill="#717485"/>
<path d="M19.7678 18.1529C19.5019 17.633 19.2631 17.0996 19.0523 16.555C18.8832 15.9091 18.803 15.2431 18.8138 14.5755V7.42073C18.9004 6.41095 18.7778 5.39417 18.4536 4.43394C18.1294 3.47371 17.6106 2.59066 16.9297 1.83999C15.2983 0.504301 13.2119 -0.14557 11.1105 0.0274437C9.94405 0.0202578 8.78162 0.164561 7.65234 0.456732C6.64972 0.693688 5.68038 1.05418 4.76657 1.52995C4.52637 1.63985 4.31432 1.80296 4.14649 2.00694C4.03166 2.24404 3.98226 2.50752 4.0034 2.77012V3.86718C4.0034 4.32032 4.14649 4.55881 4.45653 4.55881H4.81427L5.67285 4.22492C6.45096 3.92057 7.24753 3.66567 8.05778 3.46175C8.83951 3.2772 9.63951 3.1812 10.4427 3.17555C11.7376 3.04259 13.0344 3.40944 14.0678 4.20107C14.8595 5.20678 15.2274 6.48174 15.0933 7.75462V9.37637C14.2109 9.16173 13.3762 8.99478 12.5414 8.87554C11.7504 8.77313 10.9541 8.71738 10.1565 8.70859C8.21029 8.60226 6.29263 9.2132 4.76657 10.4257C4.10287 10.9795 3.575 11.6781 3.22357 12.4677C2.87213 13.2574 2.70649 14.1172 2.73938 14.981C2.70098 15.7679 2.82754 16.5542 3.11094 17.2894C3.39433 18.0246 3.8283 18.6924 4.38498 19.25C4.97623 19.8163 5.67652 20.2563 6.44323 20.5433C7.20995 20.8303 8.02705 20.9583 8.8448 20.9194C10.0941 20.9385 11.3314 20.6737 12.4633 20.1448C13.5953 19.616 14.5925 18.8371 15.3795 17.8667C15.5852 18.3166 15.8161 18.7546 16.0711 19.1784C16.297 19.5468 16.5608 19.8905 16.8582 20.204C16.9434 20.2973 17.0463 20.3728 17.1609 20.426C17.2756 20.4792 17.3997 20.5091 17.526 20.514C17.7329 20.5176 17.9349 20.4503 18.0983 20.3232L19.5054 19.3931C19.6093 19.3432 19.7006 19.2704 19.7723 19.1802C19.844 19.09 19.8944 18.9848 19.9197 18.8723C19.9449 18.7599 19.9443 18.6432 19.918 18.531C19.8917 18.4188 19.8404 18.314 19.7678 18.2245V18.1529ZM15.1649 12.763C15.1781 13.4135 15.1059 14.063 14.9502 14.6948C14.846 15.2214 14.626 15.7183 14.3063 16.1496C13.7365 16.7935 13.0151 17.2853 12.2076 17.5805C11.4393 17.8393 10.6333 17.9683 9.82263 17.9621C9.17072 17.9346 8.54169 17.714 8.01546 17.3282C7.48923 16.9424 7.08954 16.4089 6.86717 15.7955C6.6448 15.1821 6.60979 14.5164 6.76658 13.883C6.92337 13.2496 7.26488 12.6771 7.74774 12.2383C8.71751 11.5912 9.87664 11.2888 11.0389 11.3797C11.7306 11.3797 12.4222 11.3797 13.1377 11.499C13.8532 11.6182 14.5209 11.7375 15.1649 11.8805V12.763ZM26.2309 19.25C26.2993 19.5797 26.456 19.8847 26.6841 20.1324C26.9391 20.296 27.2407 20.3715 27.5427 20.3471H29.4506C29.7604 20.375 30.0707 20.2995 30.333 20.1324C30.5607 19.8782 30.7099 19.5634 30.7623 19.2261L34.1728 4.91655L37.6309 19.2261C37.661 19.558 37.8041 19.8695 38.0364 20.1086C38.2997 20.2949 38.6216 20.3796 38.9426 20.3471H40.8506C41.1476 20.3627 41.4414 20.2788 41.6853 20.1086C41.9245 19.8749 42.0903 19.5765 42.1623 19.25L47.6953 2.10233C47.7763 1.92984 47.8248 1.74389 47.8384 1.5538C47.8485 1.43477 47.8485 1.31509 47.8384 1.19606C47.8508 1.12123 47.8452 1.04453 47.822 0.972313C47.7988 0.900096 47.7588 0.834449 47.7051 0.780818C47.6515 0.727187 47.5858 0.687118 47.5136 0.663936C47.4414 0.640755 47.3647 0.635129 47.2899 0.647526H45.215C44.9144 0.638092 44.6172 0.712408 44.3564 0.86217C44.1459 1.10934 43.9985 1.40399 43.9271 1.72074L40.0635 16.6027L36.51 1.83999C36.4696 1.51797 36.3275 1.21723 36.1046 0.981417C35.8335 0.814116 35.5156 0.738832 35.1983 0.766773H33.3857C33.2273 0.739349 33.0649 0.746313 32.9094 0.787195C32.754 0.828078 32.6091 0.901922 32.4847 1.00372C32.3603 1.10551 32.2592 1.23287 32.1884 1.37716C32.1175 1.52146 32.0785 1.6793 32.074 1.83999L28.6159 16.4358L24.9192 1.83999C24.8517 1.52189 24.7039 1.22635 24.49 0.981417C24.2291 0.810829 23.9176 0.73505 23.6075 0.766773H21.4611C21.1033 0.766773 20.9364 0.957567 20.9364 1.31531C20.9559 1.61728 21.0202 1.91467 21.1272 2.19773L26.2309 19.25ZM50.0803 19.6554C50.8856 20.067 51.7445 20.364 52.6321 20.5378C53.7496 20.8033 54.894 20.9394 56.0426 20.9433C57.1259 20.9472 58.2035 20.7864 59.2384 20.4663C60.1078 20.2152 60.9185 19.7936 61.6233 19.2261C62.3008 18.7011 62.8545 18.0334 63.2451 17.2705C63.6381 16.4697 63.8344 15.5867 63.8175 14.6948C63.8335 13.5755 63.4722 12.4834 62.7919 11.5944C61.9627 10.5943 60.8607 9.85691 59.62 9.47177L56.4719 8.4701C55.6 8.22516 54.7881 7.80298 54.0869 7.22994C53.8726 7.02821 53.7025 6.7841 53.5875 6.51312C53.4726 6.24214 53.4152 5.95021 53.4192 5.65588C53.3975 5.26169 53.4838 4.86906 53.6687 4.52026C53.8536 4.17145 54.1301 3.87969 54.4685 3.67639C55.3271 3.24937 56.2763 3.03661 57.235 3.05631C58.706 3.02952 60.1643 3.33097 61.5041 3.93873C61.7653 4.07314 62.0476 4.16187 62.3388 4.20107C62.6727 4.20107 62.8635 3.96258 62.8635 3.48559V2.43622C62.8799 2.17972 62.8038 1.92584 62.6488 1.72074C62.4766 1.47802 62.2473 1.28144 61.9811 1.14836C61.6826 0.988034 61.3715 0.852434 61.0509 0.742923C60.6455 0.742923 60.2401 0.504429 59.7869 0.409032L58.356 0.146691H56.8535C55.9109 0.130143 54.971 0.250648 54.0631 0.504429C53.2031 0.744309 52.3947 1.14045 51.6782 1.67305C51.019 2.15271 50.4735 2.77152 50.0803 3.48559C49.6816 4.21681 49.4764 5.03774 49.484 5.87052C49.4943 7.03373 49.879 8.1627 50.5811 9.09018C51.4989 10.1991 52.742 10.9917 54.1346 11.3559L57.3543 12.3575C58.1861 12.544 58.9573 12.9378 59.5961 13.5023C59.7967 13.707 59.9548 13.9493 60.0612 14.2154C60.1676 14.4815 60.2203 14.766 60.2162 15.0525C60.2288 15.4784 60.1271 15.9 59.9215 16.2733C59.716 16.6466 59.4142 16.958 59.0476 17.1751C58.0533 17.7087 56.9306 17.9564 55.8041 17.8906C54.9149 17.8967 54.0275 17.8087 53.1568 17.6282C52.3366 17.4609 51.5369 17.205 50.7719 16.8651L50.2234 16.6266H49.8179C49.484 16.6266 49.2932 16.8651 49.2932 17.3182V18.5345C49.2954 18.7491 49.3442 18.9607 49.4363 19.1546C49.6384 19.3902 49.903 19.5638 50.1995 19.6554H50.0803Z" fill="#717485"/>
</svg>

<svg width="67" height="40" fill="none" xmlns="http://www.w3.org/2000/svg"><path d="M59.19 30.054a66.085 66.085 0 01-25.089 5.175 66.777 66.777 0 01-33.055-8.8c-.81-.477-1.43.358-.763.978a48.94 48.94 0 0033.103 12.592 47.889 47.889 0 0027.045-8.252c1.145-.906.095-2.241-1.121-1.693h-.12zm7.156-4.173c-.788-.978-7.656-1.837-11.925 1.097-.644.477-.525 1.097.167 1.001 2.385-.286 7.632-.906 8.562.286.93 1.193-1.05 6.13-1.932 8.348-.262.644.31.93.906.405 4.174-3.291 5.2-10.136 4.389-11.137h-.168zM19.768 18.153a16.932 16.932 0 01-.716-1.598 7.347 7.347 0 01-.238-1.98V7.421A7.369 7.369 0 0016.93 1.84 8.132 8.132 0 0011.11.027a13.475 13.475 0 00-3.458.43A12.45 12.45 0 004.767 1.53c-.24.11-.453.273-.62.477-.115.237-.165.5-.144.763v1.097c0 .453.143.692.454.692h.357l.859-.334c.778-.304 1.575-.56 2.385-.763.782-.185 1.582-.28 2.385-.286A5.104 5.104 0 0114.068 4.2a4.913 4.913 0 011.025 3.554v1.621a26.702 26.702 0 00-2.552-.5 20.318 20.318 0 00-2.385-.167 7.966 7.966 0 00-5.39 1.717A5.654 5.654 0 002.74 14.98a5.652 5.652 0 001.646 4.269 6.033 6.033 0 004.46 1.67 8.25 8.25 0 006.534-3.053c.206.45.437.888.692 1.311.226.369.49.712.787 1.026a.954.954 0 00.668.31.906.906 0 00.572-.19l1.407-.93a.763.763 0 00.263-1.17v-.071zm-4.603-5.39c.013.65-.06 1.3-.215 1.932a3.625 3.625 0 01-.644 1.455 5.175 5.175 0 01-2.098 1.43 7.296 7.296 0 01-2.385.382 3.291 3.291 0 01-2.075-5.724 5.2 5.2 0 013.29-.858c.693 0 1.384 0 2.1.119.715.12 1.383.239 2.027.381v.883zM26.23 19.25c.068.33.225.635.453.882.255.164.557.24.859.215h1.908c.31.028.62-.048.882-.215.228-.254.377-.569.43-.906l3.41-14.31 3.458 14.31c.03.332.173.643.405.883.264.186.586.27.907.238h1.908c.297.016.59-.068.834-.238.24-.234.405-.533.477-.859l5.533-17.148a1.55 1.55 0 00.143-.548c.01-.12.01-.239 0-.358a.477.477 0 00-.548-.548h-2.075c-.3-.01-.598.064-.859.214-.21.247-.358.542-.429.859l-3.864 14.882L36.51 1.84a1.527 1.527 0 00-.405-.859 1.479 1.479 0 00-.907-.214h-1.812a1.12 1.12 0 00-1.312 1.073l-3.458 14.596L24.919 1.84a1.907 1.907 0 00-.429-.859 1.36 1.36 0 00-.882-.214H21.46c-.358 0-.525.19-.525.548.02.302.084.6.191.883l5.104 17.052zm23.85.405a9.704 9.704 0 002.551.883c1.118.265 2.262.401 3.41.405 1.084.004 2.161-.157 3.196-.477a6.82 6.82 0 002.385-1.24 5.843 5.843 0 001.622-1.956c.393-.8.59-1.683.573-2.575a4.985 4.985 0 00-1.026-3.1 6.7 6.7 0 00-3.172-2.123L56.472 8.47a6.582 6.582 0 01-2.385-1.24 2.124 2.124 0 01-.668-1.574 2.17 2.17 0 011.05-1.98 5.939 5.939 0 012.766-.62 9.898 9.898 0 014.27.883c.26.134.543.223.834.262.334 0 .525-.238.525-.715v-1.05c.016-.256-.06-.51-.215-.715a1.812 1.812 0 00-.668-.573 6.204 6.204 0 00-.93-.405c-.406 0-.81-.239-1.264-.334L58.356.147h-1.503a9.73 9.73 0 00-2.79.357c-.86.24-1.668.636-2.385 1.169a5.556 5.556 0 00-1.598 1.813 4.889 4.889 0 00-.596 2.385 5.414 5.414 0 001.097 3.22 6.869 6.869 0 003.554 2.265l3.22 1.002c.831.186 1.602.58 2.241 1.144a2.17 2.17 0 01.62 1.55 2.384 2.384 0 01-1.168 2.123 6.106 6.106 0 01-3.244.716c-.89.006-1.776-.082-2.647-.263-.82-.167-1.62-.423-2.385-.763l-.549-.238h-.405c-.334 0-.525.238-.525.691v1.216c.002.215.051.427.143.62.202.236.467.41.764.501h-.12z" fill="#717485"/></svg>
